X: 4
T: Brian O'Lynn
R: jig
M: 6/8
L: 1/8
K: Ador
AB|ced cAG|~E3 GAB|ced cAG|EAA [E2A2]z|
ced cAG|~E3 GAB|cde {g}=fed|cAG [E2A2]z:|
~g3 ged|cAc cde|~a2>a age|edc def|
gea ged|cAc cde|{g}=fed cAG|E[EA][EA] [E2A2]z:|


Tune 830	Setting 21436

